svg/sph4u/photoelectric.svg

<svg xmlns="http://www.w3.org/2000/svg" viewBox="0 0 450 306.791" xml:space="preserve"><text transform="translate(320.507 293.687)" font-family="'Concourse T3'" font-size="24">A</text><circle fill="none" stroke="#000" stroke-miterlimit="10" cx="328.667" cy="286.366" r="13.333"/><text transform="translate(45 77.493)" font-family="'Concourse T3'" font-size="24">target</text><text transform="translate(201.333 20.16)" font-family="'Concourse T3'" font-size="24">ultraviolet EMR</text><text transform="translate(189.498 222.827)" font-family="'Concourse T3'" font-size="24">vacuum</text><text transform="translate(17.666 278.366)" font-family="'Concourse T3'" font-size="24">photocurrent</text><text transform="translate(327.667 77.493)" font-family="'Concourse T3'" font-size="24">collector</text><path fill="none" stroke="#000" stroke-miterlimit="10" d="M425.5 164.866c0 38.66-31.34 70-70 70h-260c-38.66 0-70-31.34-70-70v-60c0-38.66 31.34-70 70-70h260c38.66 0 70 31.34 70 70v60z"/><path fill="none" stroke="#000" stroke-miterlimit="10" d="M45.5 84.866h20v100h-20zM385.5 84.866h20v100h-20zM25 126.866h20M45 142.866H25M406 126.866h20M426 142.866h-20"/><path fill="none" stroke="#000" stroke-miterlimit="10" d="M25 135.866H.5v150H195M315 285.866h-75M425 135.866h24.5v150H342M194.5 293.366v-15M209.5 306.366v-40M240.5 306.366v-40M225.5 293.366v-15M191 306.366l62.264-38.513"/><path d="m249.91 273.667-.786-.62 4.056-5.143-6.413 1.333-.203-.979 9.103-1.892z"/><text transform="translate(243.333 161.533)" font-family="'Concourse T3'" font-size="24">e</text><text transform="matrix(.583 0 0 .583 254.133 153.54)" font-family="'Concourse T3'" font-size="24">−</text><path fill="none" stroke="#000" stroke-miterlimit="10" d="M264 156.866h29"/><path d="m287.263 160.047-.342-.941 6.156-2.24-6.156-2.24.342-.939 8.737 3.179z"/><text transform="translate(76.333 131.533)" font-family="'Concourse T3'" font-size="24">e</text><text transform="matrix(.583 0 0 .583 87.133 123.54)" font-family="'Concourse T3'" font-size="24">−</text><path fill="none" stroke="#000" stroke-miterlimit="10" d="M97 126.866h29"/><path d="m120.263 130.047-.342-.941 6.156-2.24-6.156-2.24.342-.939 8.737 3.179z"/><text transform="translate(108.333 172.533)" font-family="'Concourse T3'" font-size="24">e</text><text transform="matrix(.583 0 0 .583 119.133 164.54)" font-family="'Concourse T3'" font-size="24">−</text><path fill="none" stroke="#000" stroke-miterlimit="10" d="M129 167.866h29"/><path d="m152.263 171.047-.342-.941 6.156-2.24-6.156-2.24.342-.939 8.737 3.179z"/><text transform="translate(180.333 117.533)" font-family="'Concourse T3'" font-size="24">e</text><text transform="matrix(.583 0 0 .583 191.133 109.54)" font-family="'Concourse T3'" font-size="24">−</text><path fill="none" stroke="#000" stroke-miterlimit="10" d="M201 112.866h29"/><path d="m224.263 116.047-.342-.941 6.156-2.24-6.156-2.24.342-.939 8.737 3.179z"/><text transform="translate(269.333 106.533)" font-family="'Concourse T3'" font-size="24">e</text><text transform="matrix(.583 0 0 .583 280.133 98.54)" font-family="'Concourse T3'" font-size="24">−</text><path fill="none" stroke="#000" stroke-miterlimit="10" d="M290 101.866h29"/><path d="m313.263 105.047-.342-.941 6.156-2.24-6.156-2.24.342-.939 8.737 3.179z"/><path fill="none" stroke="#000" stroke-miterlimit="10" d="M182.162 7.528c-4.003 4.003-9.66-1.654-13.663 2.349-4.004 4.004 1.653 9.66-2.35 13.664-4.003 4.003-9.66-1.654-13.663 2.349-4.002 4.002 1.654 9.659-2.348 13.662-4.002 4.002-9.659-1.654-13.662 2.348-4.002 4.002 1.654 9.659-2.348 13.662-4.004 4.004-9.66-1.653-13.664 2.35-4.005 4.005 1.652 9.662-2.353 13.667-4.004 4.004-9.66-1.653-13.664 2.35-4.006 4.006 1.65 9.663-2.356 13.67-3.235 3.235-7.547.169-11.197.979"/><path d="m96.541 85.423.487.875-5.72 3.191 6.433 1.232-.188.982-9.131-1.749z"/><path fill="none" stroke="#000" stroke-miterlimit="10" d="M193.162 18.528c-4.003 4.003-9.66-1.654-13.663 2.349-4.004 4.004 1.653 9.66-2.35 13.664-4.003 4.003-9.66-1.654-13.663 2.349-4.002 4.002 1.654 9.659-2.348 13.662-4.002 4.002-9.659-1.654-13.662 2.348-4.002 4.002 1.654 9.659-2.348 13.662-4.004 4.004-9.66-1.653-13.664 2.35-4.005 4.005 1.652 9.662-2.353 13.667-4.004 4.004-9.66-1.653-13.664 2.35-4.006 4.006 1.65 9.663-2.356 13.67-3.235 3.235-7.547.169-11.197.979"/><path d="m107.541 96.423.487.875-5.72 3.191 6.433 1.232-.188.982-9.131-1.749z"/><path fill="none" stroke="#000" stroke-miterlimit="10" d="M205.162 30.528c-4.003 4.003-9.66-1.654-13.663 2.349-4.004 4.004 1.653 9.66-2.35 13.664-4.003 4.003-9.66-1.654-13.663 2.349-4.002 4.002 1.654 9.659-2.348 13.662-4.002 4.002-9.659-1.654-13.662 2.348-4.002 4.002 1.654 9.659-2.348 13.662-4.004 4.004-9.66-1.653-13.664 2.35-4.005 4.005 1.652 9.662-2.353 13.667-4.004 4.004-9.66-1.653-13.664 2.35-4.006 4.006 1.65 9.663-2.356 13.67-3.235 3.235-7.547.169-11.197.979"/><path d="m119.541 108.423.487.875-5.72 3.191 6.433 1.232-.188.982-9.131-1.749z"/><g fill="none" stroke="#000" stroke-miterlimit="10"><path d="M50 90.866h10M50 101.866h10M50 112.866h10M50 123.866h10M50 134.866h10M50 145.866h10M50 156.866h10M50 167.866h10M50 178.866h10"/></g><path fill="none" stroke="#000" stroke-miterlimit="10" d="M390.5 92.575h10M395.5 87.575v10M390.5 109.491h10M395.5 104.491v10M390.5 126.408h10M395.5 121.408v10M390.5 143.325h10M395.5 138.325v10M390.5 160.241h10M395.5 155.241v10M390.5 177.158h10M395.5 172.158v10"/></svg>

<svg xmlns="http://www.w3.org/2000/svg" viewBox="0 0 450 306.791" xml:space="preserve"><text transform="translate(320.507 293.687)" font-family="'Concourse T3'" font-size="24">A</text><circle fill="none" stroke="#000" stroke-miterlimit="10" cx="328.667" cy="286.366" r="13.333"/><text transform="translate(45 77.493)" font-family="'Concourse T3'" font-size="24">target</text><text transform="translate(201.333 20.16)" font-family="'Concourse T3'" font-size="24">ultraviolet EMR</text><text transform="translate(189.498 222.827)" font-family="'Concourse T3'" font-size="24">vacuum</text><text transform="translate(17.666 278.366)" font-family="'Concourse T3'" font-size="24">photocurrent</text><text transform="translate(327.667 77.493)" font-family="'Concourse T3'" font-size="24">collector</text><path fill="none" stroke="#000" stroke-miterlimit="10" d="M425.5 164.866c0 38.66-31.34 70-70 70h-260c-38.66 0-70-31.34-70-70v-60c0-38.66 31.34-70 70-70h260c38.66 0 70 31.34 70 70v60z"/><path fill="none" stroke="#000" stroke-miterlimit="10" d="M45.5 84.866h20v100h-20zm340 0h20v100h-20zm-360.5 42h20m0 16H25m381-16h20m0 16h-20"/><path fill="none" stroke="#000" stroke-miterlimit="10" d="M25 135.866H.5v150H195m120 0h-75m185-150h24.5v150H342m-147.5 7.5v-15m15 28v-40m31 40v-40m-15 27v-15m-34.5 28 62.264-38.513"/><path d="m249.91 273.667-.786-.62 4.056-5.143-6.413 1.333-.203-.979 9.103-1.892z"/><text transform="translate(243.333 161.533)" font-family="'Concourse T3'" font-size="24">e</text><text transform="matrix(.583 0 0 .583 254.133 153.54)" font-family="'Concourse T3'" font-size="24">−</text><path fill="none" stroke="#000" stroke-miterlimit="10" d="M264 156.866h29"/><path d="m287.263 160.047-.342-.941 6.156-2.24-6.156-2.24.342-.939 8.737 3.179z"/><text transform="translate(76.333 131.533)" font-family="'Concourse T3'" font-size="24">e</text><text transform="matrix(.583 0 0 .583 87.133 123.54)" font-family="'Concourse T3'" font-size="24">−</text><path fill="none" stroke="#000" stroke-miterlimit="10" d="M97 126.866h29"/><path d="m120.263 130.047-.342-.941 6.156-2.24-6.156-2.24.342-.939 8.737 3.179z"/><text transform="translate(108.333 172.533)" font-family="'Concourse T3'" font-size="24">e</text><text transform="matrix(.583 0 0 .583 119.133 164.54)" font-family="'Concourse T3'" font-size="24">−</text><path fill="none" stroke="#000" stroke-miterlimit="10" d="M129 167.866h29"/><path d="m152.263 171.047-.342-.941 6.156-2.24-6.156-2.24.342-.939 8.737 3.179z"/><text transform="translate(180.333 117.533)" font-family="'Concourse T3'" font-size="24">e</text><text transform="matrix(.583 0 0 .583 191.133 109.54)" font-family="'Concourse T3'" font-size="24">−</text><path fill="none" stroke="#000" stroke-miterlimit="10" d="M201 112.866h29"/><path d="m224.263 116.047-.342-.941 6.156-2.24-6.156-2.24.342-.939 8.737 3.179z"/><text transform="translate(269.333 106.533)" font-family="'Concourse T3'" font-size="24">e</text><text transform="matrix(.583 0 0 .583 280.133 98.54)" font-family="'Concourse T3'" font-size="24">−</text><path fill="none" stroke="#000" stroke-miterlimit="10" d="M290 101.866h29"/><path d="m313.263 105.047-.342-.941 6.156-2.24-6.156-2.24.342-.939 8.737 3.179z"/><path fill="none" stroke="#000" stroke-miterlimit="10" d="M182.162 7.528c-4.003 4.003-9.66-1.654-13.663 2.349-4.004 4.004 1.653 9.66-2.35 13.664-4.003 4.003-9.66-1.654-13.663 2.349-4.002 4.002 1.654 9.659-2.348 13.662-4.002 4.002-9.659-1.654-13.662 2.348-4.002 4.002 1.654 9.659-2.348 13.662-4.004 4.004-9.66-1.653-13.664 2.35-4.005 4.005 1.652 9.662-2.353 13.667-4.004 4.004-9.66-1.653-13.664 2.35-4.006 4.006 1.65 9.663-2.356 13.67-3.235 3.235-7.547.169-11.197.979"/><path d="m96.541 85.423.487.875-5.72 3.191 6.433 1.232-.188.982-9.131-1.749z"/><path fill="none" stroke="#000" stroke-miterlimit="10" d="M193.162 18.528c-4.003 4.003-9.66-1.654-13.663 2.349-4.004 4.004 1.653 9.66-2.35 13.664-4.003 4.003-9.66-1.654-13.663 2.349-4.002 4.002 1.654 9.659-2.348 13.662-4.002 4.002-9.659-1.654-13.662 2.348-4.002 4.002 1.654 9.659-2.348 13.662-4.004 4.004-9.66-1.653-13.664 2.35-4.005 4.005 1.652 9.662-2.353 13.667-4.004 4.004-9.66-1.653-13.664 2.35-4.006 4.006 1.65 9.663-2.356 13.67-3.235 3.235-7.547.169-11.197.979"/><path d="m107.541 96.423.487.875-5.72 3.191 6.433 1.232-.188.982-9.131-1.749z"/><path fill="none" stroke="#000" stroke-miterlimit="10" d="M205.162 30.528c-4.003 4.003-9.66-1.654-13.663 2.349-4.004 4.004 1.653 9.66-2.35 13.664-4.003 4.003-9.66-1.654-13.663 2.349-4.002 4.002 1.654 9.659-2.348 13.662-4.002 4.002-9.659-1.654-13.662 2.348-4.002 4.002 1.654 9.659-2.348 13.662-4.004 4.004-9.66-1.653-13.664 2.35-4.005 4.005 1.652 9.662-2.353 13.667-4.004 4.004-9.66-1.653-13.664 2.35-4.006 4.006 1.65 9.663-2.356 13.67-3.235 3.235-7.547.169-11.197.979"/><path d="m119.541 108.423.487.875-5.72 3.191 6.433 1.232-.188.982-9.131-1.749z"/><path d="M50 90.866h10m-10 11h10m-10 11h10m-10 11h10m-10 11h10m-10 11h10m-10 11h10m-10 11h10m-10 11h10M390.5 92.575h10m-5-5v10m-5 11.916h10m-5-5v10m-5 11.917h10m-5-5v10m-5 11.917h10m-5-5v10m-5 11.916h10m-5-5v10m-5 11.917h10m-5-5v10" fill="none" stroke="#000" stroke-miterlimit="10"/></svg>
